Origami/64x64/apps/distributor-logo-lubuntu.svg

<svg width="64" height="64" version="1.1" xmlns="http://www.w3.org/2000/svg">
 <circle cx="32" cy="33" r="28" style="opacity:.2"/>
 <circle cx="32" cy="32" r="28" style="fill:#0068c8"/>
 <path d="m38.738 11.942c-0.82-0.04-5.398 1.32-6.758 3.02-3.796 0.262-18.267 10.014-27.9682 16.812a28 28 0 0 0 -0.0118 0.226 28 28 0 0 0 0.1406 2.562c3.8404-1.424 7.7954-2.72 9.5584-2.702 0.4 0 0.701 0.058 0.821 0.218 0.8 0.92-2.56 5.424-6.02 10.524-0.4858 0.708-0.9548 1.418-1.4336 2.132a28 28 0 0 0 0.9688 1.696c4.4948-5.606 9.5568-11.79 11.0668-12.008 0.1-0.02 0.178 0 0.238 0.02 0.276 0.332-4.407 7.868-8.969 15.312a28 28 0 0 0 1.805 2c2.052-2.826 4.179-5.778 6.285-8.676 5.199-7.18 9.799-13.916 12.059-13.976 0.06 0 0.118 0.02 0.198 0.02 6.534 0.036 12.894 15.436 16.582 26.32a28 28 0 0 0 1.802 -1.29c-1.856-12.246-5.836-30.308-13.724-35.574 0.9-0.6 0.982-3.656 0.982-3.656z" style="fill:#ffffff"/>
 <path d="M 32 4 A 28 28 0 0 0 4 32 A 28 28 0 0 0 4.0215 32.586 A 28 28 0 0 1 32 5 A 28 28 0 0 1 59.979 32.414 A 28 28 0 0 0 60 32 A 28 28 0 0 0 32 4 z" style="fill:#ffffff;opacity:.1"/>
</svg>

<svg xmlns="http://www.w3.org/2000/svg" width="64" height="64" version="1.1">
 <circle style="opacity:0.2" cx="32" cy="33" r="28"/>
 <circle style="fill:#0068c8" cx="32" cy="32" r="28"/>
 <path style="fill:#ffffff" d="M 38.738,11.942 C 37.918,11.902 33.34,13.262 31.98,14.962 28.184,15.224 13.713,24.976 4.0118,31.774 A 28,28 0 0 0 4,32 28,28 0 0 0 4.1406,34.562 C 7.981,33.138 11.936,31.842 13.699,31.86 14.099,31.86 14.4,31.918 14.52,32.078 15.32,32.998 11.96,37.502 8.5,42.602 8.0142,43.31 7.5452,44.02 7.0664,44.734 A 28,28 0 0 0 8.0352,46.43 C 12.53,40.824 17.592,34.64 19.102,34.422 19.202,34.402 19.28,34.422 19.34,34.442 19.616,34.774 14.933,42.31 10.371,49.754 A 28,28 0 0 0 12.176,51.754 C 14.228,48.928 16.355,45.976 18.461,43.078 23.66,35.898 28.26,29.162 30.52,29.102 30.58,29.102 30.638,29.122 30.718,29.122 37.252,29.158 43.612,44.558 47.3,55.442 A 28,28 0 0 0 49.102,54.152 C 47.246,41.906 43.266,23.844 35.378,18.578 36.278,17.978 36.36,14.922 36.36,14.922 Z"/>
 <path style="opacity:0.1;fill:#ffffff" d="M 32 4 A 28 28 0 0 0 4 32 A 28 28 0 0 0 4.0215 32.586 A 28 28 0 0 1 32 5 A 28 28 0 0 1 59.979 32.414 A 28 28 0 0 0 60 32 A 28 28 0 0 0 32 4 z"/>
</svg>
